!! 00000] TT[00
!! NN
!!!OTL: Mai bian shi
!!!ARE: Asia, China,ÿHebei
!! Ethnic Group: Han
!! IV, 72
!!!SCT: C0382
!!!YEM: Copyright 1995, estate of Helmut Schaffrath.
**kern
*ICvox
*Ivox
*M2/4
*k[f#c#]
*D:
{8b
8dd
4a
=1
8b
8dd
4a
=2
8b
4dd
8f#
=3
8a
8b
4a}
=4
{8f#
8a
8b
8dd
=5
8a
8b
8a
8f#
=6
8e
8f#
8e
8B
=7
4.d}
{8e
=8
8a
8f#
8a
8f#
=9
8e
8f#
8a
8f#
=10
8e
8f#
8e
8B
=11
2d}
=12
{8b
8dd
4a
=13
8b
8dd
4a
=14
8b
4dd
8f#
=15
8a
8b
4a}
=16
{8dd
8ee
8ff#
8ff#
=17
8f#
8dd
4ee
=18
8dd
8dd
8ee
8b
=19
8a
8f#
4a}
=20
{8b
8dd
4a
=21
8b
8dd
4a
=22
8b
4dd
8f#
=23
8a
8b
4a}
=24
{8dd
8ee
8ff#
8ff#
=25
8f#
8dd
4ee
=26
8dd
8dd
8ee
8b
=27
8a
8f#
4a}
==
!!!AGN: Xiaodiao. Jiaomai
!! typisch fuer Shi diao oder mai ben shi diao.
!!!ONB: ESAC (Essen Associative Code) Database: CHINA
!!!AMT: simple duple
!!!AIN: vox
!!!EED: Helmut Schaffrath
!!!EEV: 1.0
*-
